contributed-vectors/name_generator.svg

<svg xmlns="http://www.w3.org/2000/svg" xml:space="preserve" style="fill-rule:evenodd;clip-rule:evenodd;stroke-linejoin:round;stroke-miterlimit:2" viewBox="0 0 192 192"><path d="M164.5 21.5c0-5.519-4.481-10-10-10h-133c-5.519 0-10 4.481-10 10v133c0 5.519 4.481 10 10 10h133c5.519 0 10-4.481 10-10v-133Z" style="fill:#96dfd3" transform="translate(8 8)"/><path d="m97.408 91.033 16.679-4.777-26.252 47.361 6.874-32.279L78.6 106.59l12.843-47.932h14.639l-8.674 32.375Z" style="fill:#f9de81" transform="matrix(.9314 0 0 .9314 6.266 6.458)"/></svg>

<?xml version="1.0" encoding="UTF-8" standalone="no"?>
<!DOCTYPE svg PUBLIC "-//W3C//DTD SVG 1.1//EN" "http://www.w3.org/Graphics/SVG/1.1/DTD/svg11.dtd">
<svg width="100%" height="100%" viewBox="0 0 192 192" version="1.1" xmlns="http://www.w3.org/2000/svg" xmlns:xlink="http://www.w3.org/1999/xlink" xml:space="preserve" xmlns:serif="http://www.serif.com/" style="fill-rule:evenodd;clip-rule:evenodd;stroke-linejoin:round;stroke-miterlimit:2;">
    <g id="Layer1">
        <g transform="matrix(1,0,0,1,8,8)">
            <path d="M164.5,21.5C164.5,15.981 160.019,11.5 154.5,11.5L21.5,11.5C15.981,11.5 11.5,15.981 11.5,21.5L11.5,154.5C11.5,160.019 15.981,164.5 21.5,164.5L154.5,164.5C160.019,164.5 164.5,160.019 164.5,154.5L164.5,21.5Z" style="fill:rgb(150,223,211);"/>
        </g>
        <g transform="matrix(0.931392,0,0,0.931392,6.26636,6.45803)">
            <path d="M97.408,91.033L114.087,86.256L87.835,133.617L94.709,101.338L78.6,106.59L91.443,58.658L106.082,58.658L97.408,91.033Z" style="fill:rgb(249,222,129);"/>
        </g>
    </g>
</svg>
